X:18
T: ES FUHR EIN FUHRKNECHT UEBERN RHEIN
N: Z0019
O: Europa, Mitteleuropa, Deutschland, Rheinland
R: Sagen - Lied, Romanze; Staende - Lied, Fuhrmann
M: 2/4
L: 1/8
K: G
D | G2_B2 | A2d2 | c_BA
D | G2_B2 | A2d2 | c_BA
c | cccd | _BAG
D | G2_B2 | A2d2 | _BAG

@@@ Tune index: 9776
